!!!COM: Mozart, Wolfgang Amadeus
!!!OTL: String Quartet No. 12 in B-flat Major
!!!OMD: Allegro spiritoso
!!!OMV: 1
!!!SCT1: K<sup>1</sup> 172
!!!SCA: Chronologisch-thematisches Verzeichnis sämtlicher Tonwerke Wolfgang Amade Mozarts (L. von Köchel; 1862, 2/1905, 3/1937, 1947)
!!!SCT2: K<sup>6</sup> 172
!!!YOR: Breitkopf & Härtel Edition
!!!ENC: Frances Bennion
!!!CDT: 1756/1/27/-1791/12/5/
!!!OCY: Österreich
!!!YEC: Copyright (c) 1994, 2000 Center for Computer Assisted Research in the Humanities
!!!YEM: Rights to all derivative editions reserved.
!!!YEM: Refer to licensing agreement for further details.
!!!YEN: United States of America
**kern	**kern	**kern	**kern
*k[b-e-]	*k[b-e-]	*k[b-e-]	*k[b-e-]
*B-:	*B-:	*B-:	*B-:
*clefC	*clefF	*clefG	*clefG
*M3/4	*M3/4	*M3/4	*M3/4
4B-	4b-	4dd 4f 4B-	4bb- 4b- 4d
4F	4f	4dd 4f 4B-	4bb- 4b- 4d
4D	4d	4dd 4f 4B-	4bb- 4b- 4d
=2	=2	=2	=2
4BB-	4B-	4dd 4f 4B-	4bb- 4b- 4d
2r	2r	4r	4r
.	.	4B-	4b-
=3	=3	=3	=3
4D	2B-	4A-	4a-
4E-	.	4G	4g
4r	4r	4B-	4b-
=4	=4	=4	=4
4D	4.B-	4A-	4a-
8E-	.	8G	8g
16e-	16e-	16ee-	16ee-
16d	16d	16dd	16dd
8c	8c	8cc	8cc
8B-	8B-	8b-	8b-
=5	=5	=5	=5
8A	8A	8a	8a
8B-	8B-	8b-	8b-
8G	8g	8g	8g
8E-	8e-	8e-	8e-
8F	8f	8f	8f
8AA	8A	8A	8A
=6	=6	=6	=6
4BB-	4B-	4B-	4B-
2r	2r	4r	4r
.	.	4B-	4b-
=7	=7	=7	=7
4D	2B-	4A-	4a-
4E-	.	4G	4g
4r	4r	4B-	4b-
=8	=8	=8	=8
4D	4.B-	4A-	4a-
8E-	.	8G	8g
16e-	16e-	16ee-	16ee-
16d	16d	16dd	16dd
8c	8c	8cc	8cc
8B-	8B-	8b-	8b-
=9	=9	=9	=9
8A	8A	8a	8a
8B-	8B-	8b-	8b-
8G	8g	8g	8g
8E-	8e-	8e-	8e-
8F	8f	8f	8f
8AA	8A	8A	8A
=10	=10	=10	=10
8BB-	4B-	4B-	4B-
8BB-	.	.	.
8B-	4r	4f	4dd
8B-	.	.	.
8B-	[4c	4g	4ee
8B-	.	.	.
=11	=11	=11	=11
8A	4c]	4c	8ff
8A	.	.	16ee
.	.	.	16ff
8A	4A	4f	4cc
8A	.	.	.
8A-	4f	4b-	4dd
8A-	.	.	.
=12	=12	=12	=12
8G	2g	8b-	4ee-
8G	.	8g	.
8G	.	2e-	4b-
8G	.	.	.
8A	4f	.	4cc
8A	.	.	.
=13	=13	=13	=13
8B-	4f	8d	8dd
16A	.	16c	16cc
16B-	.	16d	16dd
8G	8g	8B-	8b-
16F	16f	16A	16a
16G	16g	16B-	16b-
8E-	8e-	8G	8g
16D	8g	8c	8cc
16E-	.	.	.
=14	=14	=14	=14
8F	8f	8c	8a
8F	8A	8A	8f
8B-	4d	4f	4dd
8B-	.	.	.
8B-	[4c	4g	4ee
8B-	.	.	.
=15	=15	=15	=15
8A	4c]	4c	8ff
8A	.	.	16ee
.	.	.	16ff
8A	4A	4f	4cc
8A	.	.	.
8A-	4f	4b-	4dd
8A-	.	.	.
=16	=16	=16	=16
8G	2g	8b-	4ee-
8G	.	8g	.
8G	.	2e-	4b-
8G	.	.	.
8A	4f	.	4cc
8A	.	.	.
=17	=17	=17	=17
8B-	4f	8d	8dd
16A	.	16c	16cc
16B-	.	16d	16dd
8G	8g	8B-	8b-
16F	16f	16A	16a
16G	16g	16B-	16b-
8E-	8e-	8G	8g
8E	8g	8c	8cc
=18	=18	=18	=18
8F	8f	4c	16a
.	.	.	16ff
8F	4c	.	16ee
.	.	.	16ff
8F	.	2r	16gg
.	.	.	16ff
8F	4c	.	16ee
.	.	.	16ff
8F	.	.	16aa
.	.	.	16ff
8F	[8c	.	16ee
.	.	.	16ff
=19	=19	=19	=19
8E	8c]	16g	4gg
.	.	16b-	.
8E	4c	16a	.
.	.	16b-	.
8E	.	16cc	4c
.	.	16b-	.
8E	4c	16a	.
.	.	16b-	.
8E	.	16gg	4r
.	.	16b-	.
8E	[8c	16a	.
.	.	16b-	.
=20	=20	=20	=20
8F	8c]	4a	16cc
.	.	.	16ff
8F	4c	.	16ee
.	.	.	16ff
8F	.	4cc	16gg
.	.	.	16ff
8F	4c	.	16ee
.	.	.	16ff
8F	.	4r	16aa
.	.	.	16ff
8F	[8c	.	16ee
.	.	.	16ff
=21	=21	=21	=21
8E	8c]	16g	4gg
.	.	16b-	.
8E	4c	16a	.
.	.	16b-	.
8E	.	16cc	4c
.	.	16b-	.
8E	4c	16a	.
.	.	16b-	.
8E	.	16gg	4r
.	.	16b-	.
8E	[8c	16a	.
.	.	16b-	.
=22	=22	=22	=22
8F	16c]	4a	16cc
.	16a	.	16ff
8F	16g	.	16ee
.	16a	.	16ff
8F	16b-	4r	16gg
.	16a	.	16ff
8F	16g	.	16ee
.	16a	.	16ff
8F	16cc	[4f	16aa
.	16a	.	16ff
8F	16cc	.	16aa
.	16a	.	16ccc
=23	=23	=23	=23
8d	8f	4f]	4ccc
8d	4f	.	.
8d	.	4ff	4bb-
8d	4f	.	.
8c	.	4ee	4aa
8c	[8f	.	.
=24	=24	=24	=24
8B-	8f]	4dd	4aa
8B-	8f	.	.
8B-	8c	4ee	4gg
8B-	8c	.	.
8A	8c	8ff	4ff
8A	8c	8cc	.
=25	=25	=25	=25
8G	8c	4b-	4ee
8G	8c	.	.
8F	8c	4.a	4.ff
8F	8c	.	.
8F	8c	.	.
8F	8c	16g	16ee
.	.	16f	16ff
=26	=26	=26	=26
4C	4c	4e	16gg
.	.	.	16ee
.	.	.	16gg
.	.	.	16ee
4C	4c 4C	4e 4G	4cc
4r	4r	4r	4r
=27	=27	=27	=27
4F	2.r	4r	4r
4A	.	4.c	4.cc
4F	.	.	.
.	.	8d	8dd
=28	=28	=28	=28
4G	4r	8c	8cc
.	.	8B-	8b-
4E	4c	4.b-	4.bb-
4B-	4c	.	.
.	.	16g	16gg
.	.	16e	16ee
=29	=29	=29	=29
4A	4c	8f	8ff
.	.	8a	8aa
4F	4A	4.c	4.cc
4A	[4f	.	.
.	.	8d	8dd
=30	=30	=30	=30
4G	4f]	8c	8cc
.	.	8B-	8b-
4C	4e	4.b-	4.bb-
4B-	4c	.	.
.	.	16g	16gg
.	.	16e	16ee
=31	=31	=31	=31
4A	4c	4.f	4.ff
4A	4r	.	.
.	.	16f	16ff
.	.	16g	16gg
4F	4f	4a	4aa
=32	=32	=32	=32
4r	4e	4.B-	4.b-
4G	4r	.	.
.	.	16e	16ee
.	.	16f	16ff
4E	[4c	4g	4gg
=33	=33	=33	=33
4r	4c]	4.A	4.a
4F	4r	.	.
.	.	16d	16dd
.	.	16e	16ee
4D	4A	4f	4ff
=34	=34	=34	=34
4BB-	4.d	4.G	4.g
4GG	.	.	.
.	8d	8b-	8dd
4C	8c	8a	8cc
.	8B-	8g	8e
=35	=35	=35	=35
4FF	4A	4f	4f
4AA	4A	4.c	4.c
4FF	4F	.	.
.	.	8d	8d
=36	=36	=36	=36
4GG	4G	8c	8c
.	.	8B-	8B-
4CC	4C	4.b-	4.b-
4BB-	4B-	.	.
.	.	16g	16g
.	.	16e	16e
=37	=37	=37	=37
4AA	4A	8f	8f
.	.	8a	8a
4FF	4F	4.c	4.c
4AA	4A	.	.
.	.	8d	8d
=38	=38	=38	=38
4GG	4G	8c	8c
.	.	8B-	8B-
4CC	4C	4.b-	4.b-
4BB-	4B-	.	.
.	.	16g	16g
.	.	16e	16e
=39	=39	=39	=39
4AA	4A	4.f	4.f
4AA	4A	.	.
.	.	16f	16f
.	.	16g	16g
4FF	4F	4a	4a
=40	=40	=40	=40
4r	4r	4.B-	4.B-
4GG	4G	.	.
.	.	16e	16e
.	.	16f	16f
4EE	4E	4g	4g
=41	=41	=41	=41
4r	4r	4.A	4.A
4FF	4F	.	.
.	.	16d	16d
.	.	16e	16e
4DD	4D	4f	4f
=42	=42	=42	=42
4BB-	4B-	4.G	4.G
4GG	4G	.	.
.	.	8B-	8d
4CC	4C	8A	8c
.	.	8G	8e
=43	=43	=43	=43
4FF	4F	4A	16f
.	.	.	16ff
.	.	.	16ee
.	.	.	16ff
4r	4r	4r	16gg
.	.	.	16ff
.	.	.	16ee
.	.	.	16ff
4A	4f	4cc	16ff
.	.	.	16ee-
.	.	.	16dd
.	.	.	16ee-
=44	=44	=44	=44
4B-	4f	16b-	8dd
.	.	16B-	.
.	.	16c	16ee
.	.	16d	16ff
4r	4r	16e	16gg
.	.	16f	16aa
.	.	16g	16bb-
.	.	16a	16ccc
4E	16g	16b-	8ddd
.	16a	16cc	.
.	16b-	16dd	8r
.	16g	16b-	.
=45	=45	=45	=45
8F	4f	8.a	8.ccc
8BB-	.	.	.
.	.	16b-	16ddd
4C	4c	4a	4ff
4C	4B-	4g	4ee
=46	=46	=46	=46
4FF	4A	4f	16ff
.	.	.	16gg
.	.	.	16aa
.	.	.	16bb-
4r	4r	4r	16ccc
.	.	.	16bb-
.	.	.	16aa
.	.	.	16gg
4AA	4c	[4f	16ff
.	.	.	16ee
.	.	.	16dd
.	.	.	16cc
=47	=47	=47	=47
4BB-	4B-	4f]	16dd
.	.	.	16ee
.	.	.	16ff
.	.	.	16ee
4r	4r	4r	16dd
.	.	.	16cc
.	.	.	16b-
.	.	.	16a
4BB-	4G	4d	16g
.	.	.	16f
.	.	.	16e
.	.	.	16d
=48	=48	=48	=48
8C	8A	8f	2.c
8C	8A	8f	.
8C	8A	8f	.
8C	8A	8f	.
8C	8A	8f	.
8C	8A	8f	.
=49	=49	=49	=49
8C	8B-	8e	2.gg
8C	8B-	8e	.
8C	8B-	8e	.
8C	8B-	8e	.
8C	8B-	8e	.
8C	8B-	8e	.
=50	=50	=50	=50
4F	8A	8f	8ff
.	8a	8cc	8ccc
4r	8g	8b-	8ccc
.	8f	8a	8ccc
4C	4e	8g	16ccc
.	.	.	16bb-
.	.	16a	16aa
.	.	16b-	16gg
=51	=51	=51	=51
4FF	8f	8a	8ff
.	8a	8cc	8ccc
4r	8g	8b-	8ccc
.	8f	8a	8ccc
4C	4e	8g	16ccc
.	.	.	16bb-
.	.	16a	16aa
.	.	16b-	16gg
=52	=52	=52	=52
4F	4f	8.a	8.ff
.	.	16cc	16cc
4FF	4c	4a 4f	4ff 4a
4r	4r	4r	4r
=53	=53	=53	=53
2.r	8f	2a	2cc
.	8f	.	.
.	8f	.	.
.	8f	.	.
.	8f	8b-	8dd
.	8f	8cc	8ee-
=54	=54	=54	=54
2.r	8f	8a	8cc#
.	8f	8b-	8dd
.	8f	4b-	4dd
.	8f	.	.
.	8f	4r	4r
.	8f	.	.
=55	=55	=55	=55
2.r	8f	4dd	4ff
.	8f	.	.
.	8f	4cc	4ee-
.	8f	.	.
.	8f	4b	4dd
.	8f	.	.
=56	=56	=56	=56
2.r	8f	8b	8dd
.	8f	8cc	8ee-
.	8f	2cc	2ee-
.	8f	.	.
.	8f	.	.
.	8f	.	.
=57	=57	=57	=57
2.r	8f	4ee-	4gg
.	8f	.	.
.	8f	4dd	4ff
.	8f	.	.
.	8f	4cc#	4ee
.	8f	.	.
=58	=58	=58	=58
2.r	8f	4dd	4ff
.	8f	.	.
.	8f	4ff	4bb-
.	8f	.	.
.	8f	[4dd	[4ff
.	8f	.	.
=59	=59	=59	=59
2.r	8f	4dd]	4ff]
.	8f	.	.
.	8A	4cc	4ee-
.	8A	.	.
.	8B-	4b-	4dd
.	8B-	.	.
=60	=60	=60	=60
2.r	8F	4a	4cc
.	8f	.	.
.	8c	2r	2r
.	8f	.	.
.	8A	.	.
.	8c	.	.
=61	=61	=61	=61
8FF	8F	2A	2c
8FF	8F	.	.
8FF	8F	.	.
8FF	8F	.	.
8FF	8F	8B-	8d
8FF	8F	8c	8e-
=62	=62	=62	=62
8FF	8F	8A	8c#
8FF	8F	8B-	8d
8FF	8F	4B-	4d
8FF	8F	.	.
8FF	8F	4r	4r
8FF	8F	.	.
=63	=63	=63	=63
8FF	8F	4d	4f
8FF	8F	.	.
8FF	8F	4c	4e-
8FF	8F	.	.
8FF	8F	4B	4d
8FF	8F	.	.
=64	=64	=64	=64
8FF	8F	8B	8d
8FF	8F	8c	8e-
8FF	8F	2c	2e-
8FF	8F	.	.
8FF	8F	.	.
8FF	8F	.	.
=65	=65	=65	=65
8FF	8F	4e-	4g
8FF	8F	.	.
8FF	8F	4d	4f
8FF	8F	.	.
8FF	8F	4c#	4e
8FF	8F	.	.
=66	=66	=66	=66
8FF	8F	4d	4f
8FF	8F	.	.
8FF	8F	4f	4b-
8FF	8F	.	.
8FF	8F	[4d	[4f
8FF	8F	.	.
=67	=67	=67	=67
8FF	8F	4d]	4f]
8FF	8F	.	.
8AA	8F	4c	4e-
8AA	8F	.	.
8BB-	8F	4B-	4d
8BB-	8F	.	.
=68	=68	=68	=68
4FF	8F	2A	2c
.	8F	.	.
4F	8F	.	.
.	8F	.	.
4BB-	8F	8.B-	8.d
.	8F	.	.
.	.	32A	32c
.	.	32B-	32d
=69	=69	=69	=69
4FF	8F	2A	2c
.	8F	.	.
4F	8F	.	.
.	8F	.	.
4BB-	8F	8.B-	8.d
.	8F	.	.
.	.	32A	32c
.	.	32B-	32d
=70	=70	=70	=70
4FF	4F	8A	8c
.	.	8r	8r
2r	2r	8B-	8d
.	.	8r	8r
.	.	8c	8e-
.	.	8r	8r
=71	=71	=71	=71
2.r	2.r	8d	8f
.	.	8r	8r
.	.	8e-	8g
.	.	8r	8r
.	.	8c	8a
.	.	8r	8r
=72	=72	=72	=72
4B-	4b-	4dd 4f 4B-	4bb- 4b- 4d
4F	4f	4dd 4f 4B-	4bb- 4b- 4d
4D	4d	4dd 4f 4B-	4bb- 4b- 4d
=73	=73	=73	=73
4BB-	4B-	4dd 4f 4B-	4bb- 4b- 4d
2r	2r	4r	4r
.	.	4B-	4b-
=74	=74	=74	=74
4D	2B-	4A-	4a-
4E-	.	4G	4g
4r	4r	4B-	4b-
=75	=75	=75	=75
4D	4.B-	4A-	4a-
8E-	.	8G	8g
16e-	16e-	16ee-	16ee-
16d	16d	16dd	16dd
8c	8c	8cc	8cc
8B-	8B-	8b-	8b-
=76	=76	=76	=76
8A	8A	8a	8a
8B-	8B-	8b-	8b-
8G	8g	8g	8g
8E-	8e-	8e-	8e-
8C	8c	8c	8c
8F	8f	8f	8f
=77	=77	=77	=77
4BB-	4B-	4B-	4B-
2r	2r	4r	4r
.	.	4B-	4b-
=78	=78	=78	=78
4D	2B-	4A-	4a-
4E-	.	4G	4g
4r	4r	4B-	4b-
=79	=79	=79	=79
4D	4.B-	4A-	4a-
8E-	.	8G	8g
16e-	16e-	16ee-	16ee-
16d	16d	16dd	16dd
8c	8c	8cc	8cc
8B-	8B-	8b-	8b-
=80	=80	=80	=80
8A	8A	8a	8a
8B-	8B-	8b-	8b-
8G	8g	8g	8g
8E-	8e-	8e-	8e-
8F	8f	8f	8f
8AA-	8A-	8A-	8A-
=81	=81	=81	=81
8GG	8G	8G	8G
8GG	8B	4ff	4gg
8BB	8d	.	.
8BB	8g	16ee-	4gg
.	.	16dd	.
8C	8c	8ee-	.
8C	8e-	16dd	8gg
.	.	16cc	.
=82	=82	=82	=82
8FF	8A	8c	8ff
8FF	8A	4ee-	4ff
8AA	8c	.	.
8AA	8f	16dd	4ff
.	.	16cc	.
8BB-	8B-	8dd	.
8BB-	8d	16cc	8ff
.	.	16b-	.
=83	=83	=83	=83
8C	8f	8a	8ee-
8BB-	8g	8b-	4ee-
8AA	8f	8cc	.
8GG	8g	8b-	4ee-
8AA	8f	8cc	.
8FF	8c	8a	8ee-
=84	=84	=84	=84
4BB-	4B-	4b-	4dd
4AA	4A	4f	4cc
4GG	4G	4e	4b-
=85	=85	=85	=85
8FF	4F	4f	4f
8F	.	.	.
8BB-	4r	4f	4dd
8BB-	.	.	.
8B-	[4c	4g	4ee
8B-	.	.	.
=86	=86	=86	=86
8A	4c]	4c	8ff
8A	.	.	16ee
.	.	.	16ff
8A	4A	4f	4cc
8A	.	.	.
8A-	4f	[4b-	4dd
8A-	.	.	.
=87	=87	=87	=87
8G	2g	8b-]	4ee-
8G	.	8g	.
8G	.	2e-	4b-
8G	.	.	.
8A	4f	.	4cc
8A	.	.	.
=88	=88	=88	=88
8B-	4f	8d	8dd
16A	.	16c	16cc
16B-	.	16d	16dd
8G	8g	8B-	8b-
16F	16f	16A	16a
16G	16g	16B-	16b-
8E-	8e-	8G	8g
16D	8g	8c	8cc
16E-	.	.	.
=89	=89	=89	=89
8F	8f	8c	8a
8F	8c	8A	8f
8B-	4d	4f	4dd
8B-	.	.	.
8B-	[4c	4g	4ee
8B-	.	.	.
=90	=90	=90	=90
8A	4c]	4c	8ff
8A	.	.	16ee
.	.	.	16ff
8A	4A	4f	4cc
8A	.	.	.
8A-	4f	[4b-	4dd
8A-	.	.	.
=91	=91	=91	=91
8G	2g	8b-]	4ee-
8G	.	8g	.
8G	.	2e-	4b-
8G	.	.	.
8A	4f	.	4cc
8A	.	.	.
=92	=92	=92	=92
8B-	4f	8d	8dd
16A	.	16c	16cc
16B-	.	16d	16dd
8G	8g	8B-	8b-
16F	16f	16A	16a
16G	16g	16B-	16b-
8E-	8e-	8G	8g
8E	8g	8c	8cc
=93	=93	=93	=93
8F	8f	4c	16a
.	.	.	16ff
8F	4c	.	16ee
.	.	.	16ff
8F	.	2r	16gg
.	.	.	16ff
8F	4c	.	16ee
.	.	.	16ff
8F	.	.	16aa
.	.	.	16ff
8F	[8c	.	16ee
.	.	.	16ff
=94	=94	=94	=94
8E	8c]	16g	4gg
.	.	16b-	.
8E	4c	16a	.
.	.	16b-	.
8E	.	16cc	4c
.	.	16b-	.
8E	4c	16a	.
.	.	16b-	.
8E	.	16gg	4r
.	.	16ee	.
8E	[8c	16cc	.
.	.	16b-	.
=95	=95	=95	=95
8E-	8c]	4a	16cc
.	.	.	16aa
8E-	4c	.	16gg
.	.	.	16aa
8E-	.	4f	16bb-
.	.	.	16aa
8E-	4c	.	16gg
.	.	.	16aa
8E-	.	4r	16ccc
.	.	.	16aa
8E-	8c	.	16gg
.	.	.	16aa
=96	=96	=96	=96
8D	8B-	16f	4bb-
.	.	16b-	.
8D	4f	16a	.
.	.	16b-	.
8D	.	16cc	4B-
.	.	16b-	.
8D	4f	16a	.
.	.	16b-	.
8D	.	16ff	4r
.	.	16dd	.
8D	[8f	16ff	.
.	.	16dd	.
=97	=97	=97	=97
8D	8f]	4b-	16b-
.	.	.	16ff
8D	4b-	.	16ee
.	.	.	16ff
8D	.	2r	16gg
.	.	.	16ff
8D	4b-	.	16ee
.	.	.	16ff
8D	.	.	16bb-
.	.	.	16ff
8D	[8B-	.	16bb-
.	.	.	16ff
=98	=98	=98	=98
8G	8B-]	4r	4ff
8G	4B-	.	.
8G	.	4b-	4ee-
8G	4B-	.	.
8F	.	4a	4dd
8F	8B-	.	.
=99	=99	=99	=99
8E-	4B-	2g	4dd
8E-	.	.	.
8E-	4A	.	4cc
8E-	.	.	.
8D	4B-	4f	4b-
8D	.	.	.
=100	=100	=100	=100
8C	8f	4e-	8.a
8C	8f	.	.
.	.	.	16b-
8BB-	8f	4.d	4.b-
8BB-	8f	.	.
8BB-	8f	.	.
8BB-	8f	16c	16a
.	.	16B-	16b-
=101	=101	=101	=101
4F	4f	4A	16cc
.	.	.	16a
.	.	.	16cc
.	.	.	16a
4FF	4F	4c	4f 4A
4r	4r	4r	4r
=102	=102	=102	=102
4BB-	2.r	4r	4r
4D	.	4.f	4.ff
4BB-	.	.	.
.	.	8g	8gg
=103	=103	=103	=103
4C	4r	8f	8ff
.	.	8e-	8ee-
4AA	4F	4.ee-	4.eee-
4E-	[4F	.	.
.	.	16cc	16ccc
.	.	16a	16aa
=104	=104	=104	=104
4D	4F]	8b-	8bb-
.	.	8dd	8ddd
4BB-	4d	4.f	4.ff
4d	[4b-	.	.
.	.	8g	8gg
=105	=105	=105	=105
4c	4b-]	8f	8ff
.	.	8e-	8ee-
4F	4a	4.ee-	4.eee-
4e-	[4f	.	.
.	.	16cc	16ccc
.	.	16a	16aa
=106	=106	=106	=106
4d	4f]	4.b-	4.bb-
4d	4r	.	.
.	.	16b-	16bb-
.	.	16cc	16ccc
4B-	4b-	4dd	4ddd
=107	=107	=107	=107
4r	4a	4.e-	4.ee-
4c	4r	.	.
.	.	16a	16aa
.	.	16b-	16bb-
4A	[4f	4cc	4ccc
=108	=108	=108	=108
4r	4f]	4.d	4.dd
4B-	4r	.	.
.	.	16g	16gg
.	.	16a	16aa
4G	4d	4b-	4bb-
=109	=109	=109	=109
4E-	4.g	4.c	4.cc
4C	.	.	.
.	8g	8e-	8gg
4F	8f	8d	8ff
.	8e-	8c	8a
=110	=110	=110	=110
4BB-	4d	4B-	4b-
4D	4d	4.f	4.f
4BB-	4B-	.	.
.	.	8g	8g
=111	=111	=111	=111
4C	4c	8f	8f
.	.	8e-	8e-
4AA	4A	4.ee-	4.ee-
4E-	4e-	.	.
.	.	16cc	16cc
.	.	16a	16a
=112	=112	=112	=112
4D	4d	8b-	8b-
.	.	8dd	8dd
4BB-	4B-	4.f	4.f
4D	4d	.	.
.	.	8g	8g
=113	=113	=113	=113
4C	4c	8f	8f
.	.	8e-	8e-
4AA	4A	4.ee-	4.ee-
4E-	4e-	.	.
.	.	16cc	16cc
.	.	16a	16a
=114	=114	=114	=114
4D	4d	4.b-	4.b-
4D	4d	.	.
.	.	16b-	16b-
.	.	16cc	16cc
4BB-	4B-	4dd	4dd
=115	=115	=115	=115
4r	4r	4.e-	4.e-
4C	4c	.	.
.	.	16a	16a
.	.	16b-	16b-
4AA	4A	4cc	4cc
=116	=116	=116	=116
4r	4r	4.d	4.d
4BB-	4B-	.	.
.	.	16g	16g
.	.	16a	16a
4GG	4G	4b-	4b-
=117	=117	=117	=117
4EE-	4E-	4.c	4.c
4CC	4C	.	.
.	.	8e-	8g
4FF	4F	8d	8f
.	.	8c	8a
=118	=118	=118	=118
4BB-	4F	4d	8b-
.	.	.	16cc
.	.	.	16dd
4r	4r	4r	16ee-
.	.	.	16ff
.	.	.	16gg
.	.	.	16aa
4D	4f	[4b-	16bb-
.	.	.	16aa-
.	.	.	16gg
.	.	.	16ff
=119	=119	=119	=119
4E-	4e-	16b-]	16gg
.	.	16a	16aa
.	.	16g	16bb-
.	.	16f#	16aa
4r	4r	16g	16bb-
.	.	16f#	16aa
.	.	16g	16bb-
.	.	16f#	16aa
4E-	16e-	16g	8bb-
.	16f	16a	.
.	16g	16b-	8r
.	16e-	16g	.
=120	=120	=120	=120
8B-	8.d	8.f	8.ff
8E-	.	.	.
.	16e-	16g	16gg
4F	4d	4f	4b-
4FF	4c	4e-	4a
=121	=121	=121	=121
4BB-	4B-	4d	16b-
.	.	.	16bb-
.	.	.	16aa
.	.	.	16bb-
4r	4r	4r	16ccc
.	.	.	16bb-
.	.	.	16aa
.	.	.	16bb-
4D	4B-	4f	16b-
.	.	.	16dd
.	.	.	16ff
.	.	.	16aa-
=122	=122	=122	=122
4E-	4B-	4e-	16gg
.	.	.	16aa
.	.	.	16bb-
.	.	.	16aa
2r	2r	2r	16gg
.	.	.	16ff
.	.	.	16ee-
.	.	.	16dd
.	.	.	16cc
.	.	.	16b-
.	.	.	16a
.	.	.	16g
=123	=123	=123	=123
8F	8B-	8d	2.f
8F	8B-	8d	.
8F	8B-	8d	.
8F	8B-	8d	.
8F	8B-	8d	.
8F	8B-	8d	.
=124	=124	=124	=124
8FF	8A	8e-	2.ccc
8FF	8A	8e-	.
8FF	8A	8e-	.
8FF	8A	8e-	.
8FF	8A	8e-	.
8FF	8A	8e-	.
=125	=125	=125	=125
4BB-	8B-	8d	8bb-
.	8d	8f	8ff
4r	8c	8e-	8ff
.	8B-	8d	8ff
4F	4A	8c	16ff
.	.	.	16ee-
.	.	16d	16dd
.	.	16e-	16cc
=126	=126	=126	=126
4B-	8B-	8d	8b-
.	8d	8f	8ff
4r	8c	8e-	8ff
.	8B-	8d	8ff
4F	4A	8c	16ff
.	.	.	16ee-
.	.	16d	16dd
.	.	16e-	16cc
=127	=127	=127	=127
4BB-	4B-	8.d	8.b-
.	.	16dd	16ff
4BB-	4B-	4dd 4f 4B-	4bb- 4b- 4d
4r	4r	4r	4r
==	==	==	==
*-	*-	*-	*-
!!!RWG1: This file contains only pitch and duration data.
!!!RWG2: Transposing instruments are not transposed.
!!!RWG3: Spines may have incompatible meters.
!!!RWG4: Durations of rests and tied notes may be interpreted.
!!!RWG: Key is interpreted using the Humdrum key tool.
!!!AFT: stage1
!!!END: 1997/04/15
!!!KEY: 1177984218
!!!EMD: Converted from MuseData to Humdrum Dec 16, 2000, by Andreas Kornstaedt using muse2kern.
!!!EMD: Manual editing by Craig Sapp, Nov 2001
